assets/lock-laminated/lock-laminated-fill.svg

<svg id="Raw" xmlns="http://www.w3.org/2000/svg" viewBox="0 0 256 256">
  <rect width="256" height="256" fill="none"/>
  <path d="M207.96484,80h-36V52a44,44,0,0,0-88,0V80h-36a16.01833,16.01833,0,0,0-16,16V208a16.01833,16.01833,0,0,0,16,16h160a16.01833,16.01833,0,0,0,16-16V96A16.01833,16.01833,0,0,0,207.96484,80Zm-108-28a28,28,0,0,1,56,0V80h-56Zm84,140h-112a8,8,0,1,1,0-16h112a8,8,0,0,1,0,16Zm0-32h-112a8,8,0,1,1,0-16h112a8,8,0,0,1,0,16Zm0-32h-112a8,8,0,1,1,0-16h112a8,8,0,0,1,0,16Z"/>
</svg>

<svg xmlns="http://www.w3.org/2000/svg" viewBox="0 0 256 256"><rect width="256" height="256" fill="none"/><path d="M208,80H172V52a44,44,0,0,0-88,0V80H48A16,16,0,0,0,32,96V208a16,16,0,0,0,16,16H208a16,16,0,0,0,16-16V96A16,16,0,0,0,208,80ZM100,52a28,28,0,0,1,56,0V80H100Zm84,140H72a8,8,0,0,1,0-16H184a8,8,0,0,1,0,16Zm0-32H72a8,8,0,0,1,0-16H184a8,8,0,0,1,0,16Zm0-32H72a8,8,0,0,1,0-16H184a8,8,0,0,1,0,16Z"/></svg>
